X:220
T: Terry Teahan's #2
S: "Music of Ireland - The Big Session" (DJ Taylor)
Z: B.Black
L: 1/8
Q: 400
M: 12/8
R: slide
K: G
A3 AGA B2 A G2 B|AGE G2 E D2 E G2 D|\
A3 AGA B2 A G2 B|AGE G2 E D3 DGB :|
d2 A ABA B2 A G2 B|AGE G2 E D2 E G2 D|\
d2 A ABA B2 A G2 B|AGE G2 E D3 DGB :|
